public_html/images/ico/vkontakte.svg

<svg xmlns="http://www.w3.org/2000/svg" width="512" height="293" viewBox="0 0 512 293">
  <path fill="#366BAA" d="M280.796286,292.261617 C293.763286,292.261617 299.093286,283.618617 298.919286,272.792617 C298.263286,231.948617 314.153286,209.962617 342.857286,238.603617 C374.607286,270.322617 381.170286,292.261617 419.732286,292.261617 L487.980286,292.261617 C541.683286,292.261617 493.824286,238.447617 455.996286,203.386617 C420.025286,170.040617 418.324286,169.243617 449.308286,129.126617 C487.761286,79.3146169 538.042286,15.1276169 493.560286,15.1276169 L408.636286,15.1276169 C392.152286,15.1276169 390.948286,24.7356169 385.107286,38.5656169 C363.888286,88.5186169 323.546286,153.300617 308.216286,143.408617 C292.169286,133.064617 299.511286,97.9716169 300.747286,37.1756169 C301.077286,21.1126169 300.981286,10.0666169 276.419286,4.37761695 C209.295286,-11.1853831 151.123286,19.4096169 174.887286,23.8156169 C208.387286,30.0666169 205.170286,96.6606169 197.371286,127.924617 C183.763286,182.369617 132.607286,84.8316169 111.280286,36.2376169 C106.138286,24.5496169 104.576286,15.1286169 86.2012865,15.1286169 L16.7642865,15.1286169 C3.38828648,15.1286169 -3.17271352,21.2536169 1.50028648,33.6756169 C6.17028648,46.0806169 59.9052865,166.104617 123.437286,234.572617 C182.232286,297.947617 240.355286,292.261617 280.796286,292.261617 Z"/>
</svg>

<svg xmlns="http://www.w3.org/2000/svg" width="512" height="293" viewBox="0 0 512 293"><path fill="#366BAA" d="M280.796 292.262c12.967 0 18.297-8.643 18.123-19.47-.656-40.843 15.234-62.83 43.938-34.188 31.75 31.719 38.313 53.658 76.875 53.658h68.248c53.703 0 5.844-53.814-31.984-88.875-35.97-33.346-37.672-34.143-6.688-74.26 38.453-49.812 88.734-114 44.252-114h-84.924c-16.484 0-17.688 9.609-23.529 23.439-21.219 49.953-61.56 114.735-76.89 104.843-16.048-10.344-8.706-45.437-7.47-106.233.33-16.063.234-27.11-24.328-32.798-67.124-15.563-125.296 15.032-101.532 19.438 33.5 6.25 30.283 72.845 22.484 104.109-13.608 54.445-64.764-43.093-86.09-91.687-5.143-11.688-6.705-21.11-25.08-21.11H16.764c-13.376 0-19.937 6.126-15.264 18.548C6.17 46.08 59.905 166.105 123.437 234.573c58.795 63.375 116.918 57.689 157.36 57.689z"/></svg>
